images/icon/technical-car.svg

<svg width="80" height="80" viewBox="0 0 80 80" fill="none" xmlns="http://www.w3.org/2000/svg">
<path d="M45.8701 21.8149C45.2691 22.383 44.7944 23.0571 44.4735 23.7982C44.1525 24.5392 43.9917 25.3326 44.0003 26.1323C44.0022 26.363 44.1013 26.5837 44.2762 26.7462C44.451 26.9088 44.6874 27 44.9338 27H44.9409C45.0635 26.9992 45.1847 26.9757 45.2976 26.931C45.4105 26.8863 45.5129 26.8211 45.5989 26.7394C45.685 26.6576 45.753 26.5607 45.799 26.4543C45.8451 26.3479 45.8683 26.2341 45.8674 26.1193C45.8584 24.9686 46.3378 23.8618 47.2001 23.0422C48.0624 22.2225 49.237 21.7572 50.4656 21.7487H50.5007C51.7234 21.7488 52.8965 22.2015 53.7642 23.0083C54.6319 23.8151 55.124 24.9104 55.133 26.0554C55.1348 26.2862 55.234 26.5069 55.4089 26.6694C55.5837 26.832 55.8201 26.9232 56.0665 26.9232H56.0734C56.196 26.9223 56.3172 26.8989 56.4301 26.8542C56.543 26.8094 56.6454 26.7443 56.7315 26.6625C56.8175 26.5808 56.8855 26.4839 56.9316 26.3775C56.9776 26.2711 57.0009 26.1573 57 26.0425C56.9905 24.8385 56.6001 23.6643 55.878 22.6682C55.1559 21.6721 54.1347 20.8989 52.9434 20.4463C51.7521 19.9938 50.4443 19.8823 49.1854 20.1259C47.9264 20.3695 46.7729 20.9573 45.8706 21.8149H45.8701Z" fill="#DBE7EC"/>
<path d="M17.0005 33H16.9706C15.9138 33.0034 14.9017 33.3753 14.1571 34.034C13.4124 34.6927 12.9962 35.5843 13 36.5126C13.0038 37.4408 13.4273 38.3297 14.1773 38.9837C14.9273 39.6378 15.9424 40.0033 16.9992 40H17.0294C18.0862 39.9966 19.0983 39.6247 19.8429 38.966C20.5876 38.3072 21.0038 37.4157 21 36.4874C20.9962 35.5592 20.5727 34.6703 19.8227 34.0163C19.0727 33.3622 18.0576 32.9967 17.0008 33H17.0005ZM17.0148 38.2417H16.9998C16.7394 38.2425 16.4813 38.1983 16.2404 38.1115C15.9994 38.0248 15.7803 37.8972 15.5955 37.736C15.2223 37.4106 15.0115 36.9682 15.0096 36.5063C15.0077 36.0444 15.2148 35.6007 15.5854 35.2729C15.9559 34.9451 16.4596 34.76 16.9855 34.7583H16.9998C17.2602 34.7575 17.5182 34.8017 17.7592 34.8885C18.0001 34.9752 18.2193 35.1028 18.4041 35.264C18.5889 35.4251 18.7357 35.6167 18.8363 35.8277C18.9368 36.0387 18.989 36.265 18.9899 36.4937C18.9909 36.7224 18.9405 36.9491 18.8417 37.1607C18.7429 37.3723 18.5977 37.5648 18.4142 37.7271C18.2307 37.8894 18.0126 38.0184 17.7724 38.1067C17.5322 38.195 17.2745 38.2409 17.0141 38.2417H17.0148Z" fill="#DBE7EC"/>
<path d="M69.0444 31.2247C69.0493 31.1841 69.0517 31.1432 69.0515 31.1023C69.0504 29.5304 68.4884 28.0121 67.4694 26.8283C67.1762 26.4919 66.8455 26.1912 66.4839 25.9324L69.9998 25.9048C70.1243 25.9038 70.2473 25.8772 70.3613 25.8266C70.4754 25.7759 70.5782 25.7023 70.6634 25.6102C70.7486 25.5181 70.8144 25.4094 70.857 25.2907C70.8996 25.172 70.918 25.0457 70.9111 24.9196C70.8473 24.1041 70.684 23.2998 70.4249 22.5252C69.8609 20.8495 68.1198 19.7727 65.9815 19.7727H65.9338C64.6149 19.7825 62.2159 19.7917 61.1442 19.7956L58.9619 15.7867C57.4536 13.09 55.2637 10 51.6725 10H51.6257L25.2886 10.1972C22.3383 10.2192 19.7332 12.3145 17.951 16.0985L15.7339 20.1551C14.6652 20.1608 12.2386 20.1743 10.9026 20.1843C8.74261 20.2 6.99561 21.3067 6.45266 23.0035C6.20481 23.7819 6.05302 24.5886 6.00077 25.4049C5.9957 25.5306 6.01572 25.656 6.05963 25.7736C6.10353 25.8913 6.17041 25.9987 6.25625 26.0894C6.34209 26.1801 6.44511 26.2523 6.55914 26.3017C6.67317 26.351 6.79584 26.3764 6.91979 26.3764H6.92781L10.3872 26.346C10.0355 26.6115 9.71552 26.9178 9.43378 27.2587C8.45139 28.4678 7.92505 29.9922 7.94894 31.5591C7.94922 31.5983 7.95194 31.6374 7.95708 31.6763L9.59317 44.0601C9.61594 44.908 9.93074 45.721 10.4829 46.3579C11.035 46.9948 11.7895 47.4152 12.6154 47.5463L12.6443 51.5491C12.6488 52.1496 12.887 52.724 13.307 53.1471C13.727 53.5703 14.2948 53.8078 14.8867 53.808H14.9038L18.9208 53.7779C19.5153 53.7727 20.0836 53.5285 20.5009 53.0987C20.9182 52.669 21.1504 52.0888 21.1467 51.4855L21.1181 47.5288L32.8021 47.4415C32.7613 47.9804 32.7405 48.5221 32.7397 49.0667C32.7397 60.6093 41.9943 70 53.3698 70C64.7453 70 73.9999 60.6093 73.9999 49.0667C74.0143 43.8326 72.0817 38.7857 68.5884 34.9345L69.0444 31.2247ZM65.9463 21.64H65.979C67.2978 21.64 68.3822 22.2361 68.6829 23.1293C68.7834 23.43 68.8659 23.7365 68.93 24.0472L63.479 24.0899L62.1565 21.6587C63.3482 21.654 64.9529 21.6469 65.9463 21.64ZM19.5736 16.9788C19.5829 16.9619 19.5916 16.9445 19.5998 16.9271C20.4472 15.1203 22.3147 12.0861 25.3027 12.0639L51.6392 11.8667H51.673C53.7623 11.8667 55.4654 13.3172 57.3567 16.6984L61.8506 24.9581L15.0201 25.3083L19.5736 16.9788ZM7.96812 24.5005C8.0278 24.1894 8.10578 23.8822 8.20162 23.5805C8.49163 22.6755 9.58253 22.0605 10.9163 22.0508C11.9126 22.0433 13.5166 22.034 14.7104 22.0273L13.3846 24.4533L7.96812 24.5005ZM18.9071 51.9112L14.8901 51.9413C14.837 51.9432 14.7842 51.9336 14.7349 51.9133C14.6857 51.893 14.6413 51.8625 14.6045 51.8236C14.5667 51.786 14.5366 51.7411 14.516 51.6917C14.4953 51.6422 14.4845 51.5891 14.4842 51.5353L14.455 47.5787L19.2775 47.5425L19.3062 51.4992C19.3069 51.6075 19.2653 51.7116 19.1905 51.7889C19.1157 51.8661 19.0138 51.9101 18.9071 51.9112V51.9112ZM33.0266 45.5733L13.1702 45.7215C12.7131 45.7229 12.274 45.5411 11.9484 45.2155C11.6228 44.89 11.4371 44.4471 11.4317 43.9833C11.4314 43.9441 11.4287 43.9049 11.4235 43.866L9.78804 31.4887C9.79435 28.8887 11.5392 27.2887 13.2965 27.1716C13.3478 27.1811 13.3999 27.1862 13.4521 27.1867H13.4589L63.3712 26.8133C63.3787 26.8133 63.3862 26.8144 63.3937 26.8144C63.4048 26.8144 63.4157 26.8144 63.4267 26.8144C63.9333 26.8168 64.4336 26.9297 64.8935 27.1456C65.3533 27.3616 65.762 27.6754 66.0918 28.0657C66.7983 28.8993 67.1943 29.958 67.2108 31.0573L66.9356 33.296C63.4432 30.2032 59.0261 28.3938 54.3965 28.1594C49.7668 27.9249 45.1942 29.2791 41.4156 32.0037C39.798 33.1717 38.3541 34.5695 37.1284 36.1543L37.1113 33.7983C37.1095 33.5519 37.0118 33.3163 36.8395 33.1428C36.6672 32.9692 36.4342 32.8719 36.1915 32.8719H36.1846C36.0638 32.8728 35.9444 32.8978 35.8331 32.9455C35.7218 32.9933 35.6209 33.0628 35.5361 33.1501C35.4513 33.2374 35.3843 33.3408 35.3389 33.4544C35.2935 33.568 35.2706 33.6896 35.2715 33.8121L35.2902 36.376C35.2919 36.6224 35.3896 36.858 35.5619 37.0316C35.7342 37.2051 35.9672 37.3025 36.21 37.3025H36.217C36.2466 37.3025 36.2761 37.3003 36.3051 37.2973C34.6359 39.7832 33.5174 42.6067 33.0266 45.5733ZM72.1603 49.0667C72.1603 59.5801 63.731 68.1333 53.3698 68.1333C43.0086 68.1333 34.5793 59.5801 34.5793 49.0667C34.5793 44.0099 36.559 39.1602 40.0829 35.5845C43.6068 32.0088 48.3862 30 53.3698 30C58.3533 30 63.1328 32.0088 66.6567 35.5845C70.1806 39.1602 72.1603 44.0099 72.1603 49.0667V49.0667Z" fill="#DBE7EC"/>
<path d="M31.495 33H31.4913C31.4263 33.0008 31.3621 33.0234 31.3022 33.0665C31.2423 33.1096 31.188 33.1723 31.1424 33.2512C31.0968 33.33 31.0607 33.4234 31.0363 33.5259C31.0119 33.6285 30.9995 33.7382 31 33.8489L31.0101 36.1636C31.011 36.386 31.0636 36.5987 31.1563 36.7554C31.249 36.9121 31.3744 37 31.505 37H31.5087C31.5737 36.9992 31.638 36.9766 31.6979 36.9335C31.7577 36.8904 31.812 36.8276 31.8576 36.7488C31.9032 36.6699 31.9393 36.5766 31.9637 36.474C31.9881 36.3715 32.0005 36.2618 32 36.1511L31.9896 33.8366C31.9887 33.6143 31.9362 33.4016 31.8435 33.2449C31.7509 33.0882 31.6256 33.0002 31.495 33V33Z" fill="#DBE7EC"/>
<path d="M26.99 33H26.9825C26.8525 33.0008 26.724 33.0234 26.6043 33.0665C26.4846 33.1096 26.376 33.1724 26.2847 33.2512C26.1935 33.33 26.1214 33.4234 26.0726 33.5259C26.0237 33.6285 25.9991 33.7382 26 33.8488L26.0201 36.1637C26.022 36.3861 26.1272 36.5988 26.3126 36.7554C26.498 36.9121 26.7487 37 27.01 37H27.0173C27.1473 36.9992 27.2759 36.9766 27.3956 36.9335C27.5154 36.8904 27.624 36.8277 27.7152 36.7488C27.8065 36.67 27.8786 36.5767 27.9274 36.4741C27.9763 36.3716 28.0009 36.2618 28 36.1512L27.9799 33.8364C27.978 33.614 27.8729 33.4013 27.6874 33.2446C27.502 33.0879 27.2513 33 26.99 33Z" fill="#DBE7EC"/>
<path d="M67.4846 45.7237C67.737 45.5301 67.911 45.2497 67.974 44.935C68.037 44.6204 67.9846 44.2933 67.8267 44.0151L64.831 38.9013C64.5158 38.3691 63.859 38.0365 63.2039 38.4134L60.1296 39.8489C59.4645 39.3651 58.7547 38.948 58.0102 38.6034L57.7021 35.163C57.6982 35.1199 57.6914 35.0772 57.6817 35.0351C57.6231 34.7477 57.4703 34.4889 57.2482 34.3009C57.0261 34.1129 56.7478 34.0069 56.4587 34.0001H50.6095C50.3001 33.9964 50.0006 34.1109 49.7704 34.321C49.5403 34.531 49.3965 34.8212 49.3674 35.1339L49.0582 38.6027C48.306 38.937 47.5918 39.3532 46.9281 39.8439L43.8389 38.4017C43.825 38.3953 43.8112 38.3893 43.797 38.3836C43.2199 38.1493 42.5168 38.3869 42.2352 38.903L39.3138 44.0086C39.1511 44.2883 39.0966 44.6193 39.1608 44.9374C39.225 45.2555 39.4033 45.5381 39.6612 45.7304L39.6799 45.7444L42.4547 47.7467C42.3294 48.5751 42.329 49.4181 42.4535 50.2466L39.546 52.2557C39.5338 52.2641 39.5216 52.2729 39.5097 52.282C39.2599 52.4755 39.0879 52.7546 39.0257 53.0672C38.9634 53.3798 39.0152 53.7047 39.1713 53.9815L42.096 59.0901L42.1027 59.1018C42.256 59.3725 42.4982 59.5798 42.787 59.6872C42.9414 59.7407 43.1053 59.7595 43.2676 59.7423C43.4298 59.7251 43.5864 59.6724 43.7266 59.5877L46.803 58.1513C47.4682 58.6348 48.178 59.0518 48.9223 59.3965L49.2307 62.8374C49.2346 62.8804 49.2415 62.9231 49.2512 62.9652C49.3097 63.2525 49.4624 63.5113 49.6845 63.6992C49.9065 63.8872 50.1848 63.9932 50.4738 63.9999H56.323C56.6323 64.0036 56.9317 63.8892 57.1618 63.6792C57.3918 63.4693 57.5357 63.1793 57.5649 62.8667L57.8747 59.3969C58.6267 59.0625 59.3408 58.6465 60.0044 58.1559L63.0931 59.5984C63.1082 59.6054 63.1234 59.6115 63.139 59.6182C63.7126 59.8481 64.4148 59.6104 64.6959 59.0986L67.6225 53.9859C67.7828 53.7075 67.8363 53.3789 67.7725 53.0631C67.7088 52.7472 67.5324 52.4664 67.2771 52.2745L64.6805 50.2669C64.8073 49.4316 64.8079 48.5815 64.6822 47.746L67.4641 45.7385C67.4712 45.7338 67.4778 45.7287 67.4846 45.7237ZM63.1825 46.571C63.0467 46.6689 62.9402 46.8029 62.8745 46.9582C62.8089 47.1136 62.7867 47.2843 62.8103 47.4516L62.84 47.6619C63.0043 48.5464 63.0043 49.4543 62.84 50.3388L62.8111 50.5417C62.7881 50.704 62.8082 50.8696 62.8693 51.0213C62.9305 51.1731 63.0305 51.3055 63.159 51.4048L65.8241 53.4654L63.3921 57.7142L60.2552 56.2492C60.101 56.1773 59.9299 56.1507 59.7614 56.1726C59.593 56.1945 59.434 56.2639 59.3025 56.3729L59.1364 56.5108C58.4394 57.0616 57.6701 57.5108 56.8507 57.8456L56.6632 57.9272C56.513 57.9926 56.383 58.0979 56.287 58.2321C56.1909 58.3663 56.1324 58.5244 56.1176 58.6895L55.8076 62.1608H50.9904L50.6796 58.6893C50.6648 58.5241 50.6063 58.3661 50.5102 58.2319C50.4142 58.0977 50.2842 57.9923 50.134 57.927L49.9453 57.8456C49.1176 57.488 48.3361 57.029 47.6182 56.4787L47.4548 56.3541C47.3241 56.2545 47.1693 56.1925 47.0068 56.1749C46.8442 56.1573 46.68 56.1847 46.5316 56.2541L43.4039 57.7144L40.9843 53.4868L43.7623 51.5673C43.7695 51.5623 43.7768 51.5571 43.784 51.5519L43.9597 51.4227C44.0933 51.3245 44.1979 51.1911 44.2624 51.037C44.3268 50.8828 44.3486 50.7138 44.3254 50.548L44.2952 50.3322C44.131 49.4494 44.1314 48.5432 44.2962 47.6606L44.3256 47.4503C44.3491 47.2831 44.3268 47.1127 44.2612 46.9575C44.1956 46.8024 44.0891 46.6686 43.9536 46.5707L41.1151 44.5224L43.5392 40.2871L46.6768 41.7518C46.831 41.8238 47.002 41.8503 47.1704 41.8285C47.3388 41.8066 47.4978 41.7372 47.6292 41.6281L47.7952 41.4904C48.4921 40.9398 49.2612 40.4905 50.0804 40.1557L50.2687 40.0739C50.4191 40.0086 50.5493 39.9032 50.6455 39.7689C50.7417 39.6346 50.8003 39.4764 50.815 39.311L51.1243 35.8399H55.9421L56.2529 39.3112C56.2678 39.4765 56.3264 39.6346 56.4225 39.7688C56.5187 39.903 56.6488 40.0083 56.7991 40.0735L56.9869 40.155C57.8146 40.5125 58.596 40.9715 59.3137 41.5219L59.4772 41.6467C59.6079 41.7462 59.7627 41.8081 59.9252 41.8257C60.0878 41.8433 60.2519 41.816 60.4004 41.7467L63.5324 40.2841L66.0164 44.5244L63.1825 46.571Z" fill="#DBE7EC"/>
<path d="M53.4997 41C48.7335 41 45 44.514 45 48.9999C45 53.4858 48.7335 57 53.4997 57C58.266 57 62 53.4859 62 48.9999C62 44.5138 58.2658 41 53.4997 41ZM53.4997 55.2032C52.1962 55.2031 50.9219 54.8393 49.838 54.1577C48.7542 53.4761 47.9094 52.5073 47.4106 51.3738C46.9117 50.2403 46.7812 48.9931 47.0355 47.7898C47.2899 46.5865 47.9176 45.4812 48.8393 44.6137C49.7611 43.7462 50.9355 43.1554 52.214 42.916C53.4925 42.6767 54.8177 42.7995 56.0221 43.269C57.2264 43.7385 58.2558 44.5335 58.98 45.5536C59.7042 46.5737 60.0908 47.773 60.0908 48.9999C60.1003 49.817 59.9362 50.6276 59.6083 51.3842C59.2805 52.1409 58.7953 52.8283 58.1814 53.4061C57.5674 53.9839 56.8371 54.4405 56.0332 54.7491C55.2292 55.0577 54.3679 55.2121 53.4997 55.2032V55.2032Z" fill="#DBE7EC"/>
<path d="M53.4997 45.0002C52.6097 45.0003 51.7397 45.2349 50.9998 45.6744C50.2598 46.1139 49.683 46.7387 49.3425 47.4695C49.0019 48.2004 48.9128 49.0047 49.0865 49.7806C49.2601 50.5565 49.6887 51.2692 50.3181 51.8285C50.9474 52.3879 51.7492 52.7689 52.6221 52.9232C53.495 53.0775 54.3998 52.9982 55.222 52.6955C56.0443 52.3927 56.747 51.88 57.2415 51.2222C57.7359 50.5644 57.9998 49.7911 57.9997 49C58.0061 48.4731 57.8941 47.9504 57.6702 47.4626C57.4463 46.9747 57.1151 46.5315 56.696 46.159C56.2768 45.7864 55.7782 45.492 55.2293 45.293C54.6805 45.0941 54.0924 44.9945 53.4997 45.0002V45.0002ZM53.4997 51.2457C53.0001 51.2456 52.5117 51.1139 52.0963 50.8672C51.6809 50.6204 51.3571 50.2697 51.1659 49.8594C50.9747 49.4491 50.9247 48.9976 51.0222 48.562C51.1197 48.1264 51.3603 47.7263 51.7136 47.4123C52.0668 47.0982 52.517 46.8844 53.007 46.7977C53.497 46.7111 54.005 46.7555 54.4666 46.9255C54.9282 47.0954 55.3227 47.3832 55.6003 47.7525C55.8779 48.1217 56.0261 48.5559 56.0261 49C56.0297 49.2958 55.9669 49.5893 55.8412 49.8632C55.7155 50.1371 55.5296 50.3859 55.2942 50.5951C55.0589 50.8043 54.779 50.9696 54.4708 51.0813C54.1627 51.193 53.8325 51.2489 53.4997 51.2457V51.2457Z" fill="#DBE7EC"/>
</svg>

<svg width="80" height="80" fill="none" xmlns="http://www.w3.org/2000/svg"><path d="M45.87 21.815a6.03 6.03 0 00-1.396 1.983A5.712 5.712 0 0044 26.132a.847.847 0 00.276.614.966.966 0 00.658.254h.007a.987.987 0 00.357-.069.94.94 0 00.3-.192.87.87 0 00.201-.285.825.825 0 00.068-.335c-.009-1.15.47-2.257 1.333-3.077a4.792 4.792 0 013.266-1.293h.035c1.222 0 2.396.453 3.263 1.26.868.806 1.36 1.901 1.369 3.046a.847.847 0 00.276.614.966.966 0 00.657.254h.007a.99.99 0 00.357-.069.941.941 0 00.301-.191.872.872 0 00.2-.285.827.827 0 00.069-.335 5.821 5.821 0 00-1.122-3.375 6.437 6.437 0 00-2.935-2.222 6.912 6.912 0 00-3.758-.32 6.64 6.64 0 00-3.314 1.689zM17 33h-.03c-1.056.003-2.068.375-2.813 1.034-.745.659-1.16 1.55-1.157 2.479.004.928.427 1.817 1.177 2.47.75.655 1.765 1.02 2.822 1.017h.03c1.057-.003 2.07-.375 2.814-1.034.745-.659 1.16-1.55 1.157-2.479-.004-.928-.427-1.817-1.177-2.47-.75-.655-1.765-1.02-2.822-1.017zm.015 5.242H17a2.27 2.27 0 01-.76-.13 2.02 2.02 0 01-.644-.376 1.643 1.643 0 01-.586-1.23 1.64 1.64 0 01.575-1.233 2.13 2.13 0 011.4-.515H17c.26 0 .518.044.76.13.24.087.46.215.644.376.185.161.332.353.432.564a1.56 1.56 0 01.006 1.333 1.743 1.743 0 01-.428.566 2.02 2.02 0 01-.642.38c-.24.088-.497.134-.758.135z" fill="#DBE7EC"/><path d="M69.044 31.225a.982.982 0 00.008-.123 6.56 6.56 0 00-1.583-4.274 5.736 5.736 0 00-.985-.896L70 25.905a.909.909 0 00.663-.295.936.936 0 00.248-.69 10.01 10.01 0 00-.486-2.395c-.564-1.675-2.305-2.752-4.444-2.752h-.047c-1.32.01-3.718.019-4.79.023l-2.182-4.01C57.454 13.09 55.264 10 51.672 10h-.046l-26.337.197c-2.95.022-5.556 2.118-7.338 5.902l-2.217 4.056c-1.069.006-3.495.02-4.831.03-2.16.015-3.907 1.122-4.45 2.819-.248.778-.4 1.585-.452 2.4a.945.945 0 00.255.685.921.921 0 00.664.287h.008l3.46-.03a5.665 5.665 0 00-.954.913 6.66 6.66 0 00-1.485 4.3c0 .04.003.078.008.117L9.593 44.06c.023.848.338 1.661.89 2.298a3.562 3.562 0 002.132 1.188l.03 4.003c.004.6.242 1.175.662 1.598.42.423.988.66 1.58.661h.017l4.017-.03a2.23 2.23 0 001.58-.68c.417-.429.65-1.01.646-1.612l-.029-3.957 11.684-.088c-.04.54-.062 1.081-.062 1.626C32.74 60.609 41.994 70 53.37 70 64.745 70 74 60.61 74 49.067a20.953 20.953 0 00-5.412-14.133l.456-3.71zm-3.098-9.585h.033c1.319 0 2.403.596 2.704 1.49.1.3.183.607.247.917l-5.451.043-1.322-2.431c1.191-.005 2.796-.012 3.79-.019zm-46.372-4.661a.928.928 0 00.026-.052c.847-1.807 2.715-4.84 5.703-4.863l26.336-.197h.034c2.09 0 3.792 1.45 5.684 4.831l4.494 8.26-46.83.35 4.553-8.33zM7.968 24.5c.06-.31.138-.618.234-.92.29-.904 1.38-1.52 2.714-1.53l3.794-.023-1.325 2.426-5.417.047zm10.94 27.411l-4.018.03a.372.372 0 01-.286-.117.407.407 0 01-.12-.289l-.029-3.956 4.822-.037.03 3.957a.42.42 0 01-.116.29.4.4 0 01-.284.122zm14.119-6.338l-19.857.148a1.72 1.72 0 01-1.222-.505 1.772 1.772 0 01-.516-1.233.94.94 0 00-.008-.117L9.788 31.489c.006-2.6 1.751-4.2 3.508-4.317.052.01.104.014.156.015h.007l49.912-.374.023.001h.033a3.49 3.49 0 011.467.332c.46.216.868.53 1.198.92a4.738 4.738 0 011.119 2.991l-.275 2.239a20.473 20.473 0 00-12.54-5.137 20.42 20.42 0 00-12.98 3.845 20.856 20.856 0 00-4.288 4.15l-.017-2.356a.94.94 0 00-.271-.655.913.913 0 00-.649-.271h-.006a.91.91 0 00-.649.278.934.934 0 00-.264.662l.018 2.564a.94.94 0 00.272.656c.172.173.405.27.648.27h.007c.03 0 .06-.002.088-.005a20.994 20.994 0 00-3.278 8.276zm39.133 3.494c0 10.513-8.429 19.066-18.79 19.066-10.361 0-18.79-8.553-18.79-19.066a19.21 19.21 0 015.503-13.483A18.653 18.653 0 0153.37 30c4.983 0 9.763 2.009 13.287 5.584a19.21 19.21 0 015.503 13.483z" fill="#DBE7EC"/><path d="M31.495 33h-.004a.33.33 0 00-.189.066.585.585 0 00-.16.185 1.025 1.025 0 00-.106.275 1.378 1.378 0 00-.036.323l.01 2.315c.001.222.054.435.146.591.093.157.218.245.349.245h.004a.33.33 0 00.189-.066.588.588 0 00.16-.185c.045-.08.081-.172.106-.275.024-.102.037-.212.036-.323l-.01-2.314a1.206 1.206 0 00-.146-.592c-.093-.157-.218-.245-.349-.245zm-4.505 0h-.007c-.13 0-.259.023-.379.066-.12.044-.228.106-.32.185a.844.844 0 00-.211.275.735.735 0 00-.073.323l.02 2.315a.786.786 0 00.293.591c.185.157.436.245.697.245h.007c.13 0 .259-.023.379-.066a1.01 1.01 0 00.32-.185.842.842 0 00.211-.275.734.734 0 00.073-.323l-.02-2.315a.786.786 0 00-.293-.591A1.085 1.085 0 0026.99 33zm40.495 12.724a1.334 1.334 0 00.342-1.709l-2.996-5.114c-.315-.532-.972-.865-1.627-.488L60.13 39.85a12.638 12.638 0 00-2.12-1.246l-.308-3.44a1.302 1.302 0 00-.454-.862 1.268 1.268 0 00-.79-.3H50.61a1.218 1.218 0 00-.839.32c-.23.21-.373.5-.403.813l-.309 3.469a11.34 11.34 0 00-2.13 1.24l-3.09-1.441a.912.912 0 00-.041-.018c-.577-.235-1.28.003-1.562.519l-2.921 5.106a1.327 1.327 0 00.347 1.721l.019.014 2.775 2.003a8.386 8.386 0 00-.002 2.5l-2.907 2.009a1.318 1.318 0 00-.52.812 1.33 1.33 0 00.145.913l2.925 5.11.007.01c.153.272.395.479.684.586a1.11 1.11 0 00.94-.1l3.076-1.436c.665.484 1.375.9 2.12 1.245l.308 3.441a1.301 1.301 0 00.454.862c.222.188.5.294.789.3h5.849c.31.005.609-.11.839-.32.23-.21.374-.5.403-.812l.31-3.47a11.29 11.29 0 002.13-1.241l3.088 1.442.046.02c.574.23 1.276-.008 1.557-.52l2.927-5.112a1.325 1.325 0 00-.346-1.711l-2.597-2.008a8.437 8.437 0 00.002-2.521l2.782-2.008.02-.014zm-4.303.847a.918.918 0 00-.372.88l.03.21a7.33 7.33 0 010 2.678l-.029.203a.934.934 0 00.348.863l2.665 2.06-2.432 4.25-3.137-1.466a.895.895 0 00-.953.124l-.166.138a9.49 9.49 0 01-2.285 1.335l-.188.081a.928.928 0 00-.546.762l-.31 3.472H50.99l-.31-3.472a.928.928 0 00-.546-.762l-.189-.081a10.99 10.99 0 01-2.327-1.367l-.163-.125a.899.899 0 00-.923-.1l-3.128 1.46-2.42-4.227 2.778-1.92.022-.015.176-.13a.918.918 0 00.365-.874l-.03-.216a7.293 7.293 0 01.001-2.671l.03-.21a.933.933 0 00-.372-.88l-2.839-2.049 2.424-4.235 3.138 1.465a.895.895 0 00.952-.124l.166-.138c.697-.55 1.466-1 2.285-1.334l.189-.082a.927.927 0 00.546-.763l.31-3.471h4.817l.31 3.471a.93.93 0 00.17.458c.097.134.227.24.377.305l.188.081c.828.358 1.609.816 2.327 1.367l.163.125a.9.9 0 00.923.1l3.132-1.463 2.484 4.24-2.834 2.047z" fill="#DBE7EC"/><path d="M53.5 41c-4.767 0-8.5 3.514-8.5 8 0 4.486 3.733 8 8.5 8 4.766 0 8.5-3.514 8.5-8 0-4.486-3.734-8-8.5-8zm0 14.203a6.889 6.889 0 01-3.662-1.045 6.3 6.3 0 01-2.427-2.784 5.865 5.865 0 01-.376-3.584 6.1 6.1 0 011.804-3.176 6.729 6.729 0 013.375-1.698 6.975 6.975 0 013.808.353 6.521 6.521 0 012.958 2.285A5.947 5.947 0 0160.09 49a5.82 5.82 0 01-.482 2.384 6.122 6.122 0 01-1.427 2.022 6.566 6.566 0 01-2.148 1.343 6.88 6.88 0 01-2.533.454z" fill="#DBE7EC"/><path d="M53.5 45c-.89 0-1.76.235-2.5.674a4.142 4.142 0 00-1.657 1.795 3.594 3.594 0 00-.257 2.312 3.884 3.884 0 001.232 2.047c.63.56 1.431.94 2.304 1.095a5.025 5.025 0 002.6-.227 4.429 4.429 0 002.02-1.474A3.691 3.691 0 0058 49a3.575 3.575 0 00-.33-1.537 3.958 3.958 0 00-.974-1.304 4.529 4.529 0 00-1.467-.866A4.946 4.946 0 0053.5 45zm0 6.246c-.5 0-.988-.132-1.404-.379a2.326 2.326 0 01-.93-1.008 2.015 2.015 0 01-.144-1.297 2.18 2.18 0 01.692-1.15 2.637 2.637 0 011.293-.614 2.82 2.82 0 011.46.127c.461.17.856.458 1.133.828a2.072 2.072 0 01.241 2.11 2.222 2.222 0 01-.547.732 2.54 2.54 0 01-.823.486 2.776 2.776 0 01-.971.165z" fill="#DBE7EC"/></svg>
